X:98
T:Malcolm of the Glen
T:Calum a' Ghlinne
R:Slow Air
S:Simon Fraser Collection
N:No.229
O:Scottish
M:6/8
L:1/8
Q:3/8=100
K:E_
E|B,CE E2G|B2e GF z/E/|CFG A2F|_d>ed cB z/G/|Bcd e>Bc|_d>ed cB z/e/|
BAG A>Bc|GeG FEC|B,CE E2||E|GEF E>FG|BGe GFE|AFG A>GF|
d>ed cB z/G/|Bcd e>Bc|_d>ed cB z/e/|BAG A>Bc|BeG FEC|B,CE E2||

